!!!!SEGMENT: pl-kk--kk-i-283_anonim--sancta-maria-succurre-miseris.krn
!!!cenid: 17xx:2095
!!!COM: Anonim
!!!COM-rismid: pe30004985
!!!CDT:
!!!CNT:
!!!OTL: Sancta Maria succurre miseris
!!!PDT:
!!!AGN: Sacred
!!!SMS-siglum: PL-Kk
!!!SMS-shelfmark: Kk.I.283
!!!SMS-shelfwork: W
!!!SMS-variant:
!!!SMS-altvar:
!!!NIFC-rismid: 1001147164
!!!URL-scan: http://repozytorium.nifc.pl/skany/pl-kk-nut--i-283
!!!ONB-nifc: UWAGA: na odwrotach stron pozostałości innych utworów
**kern	**text	**text	**text	**kern	**text	**text	**kern	**text	**text	**kern	**text	**text	**kern	**text	**text
*part5	*part5	*part5	*part5	*part4	*part4	*part4	*part3	*part3	*part3	*part2	*part2	*part2	*part1	*part1	*part1
*staff5	*staff5	*staff5	*staff5	*staff4	*staff4	*staff4	*staff3	*staff3	*staff3	*staff2	*staff2	*staff2	*staff1	*staff1	*staff1
*Iempty	*	*	*	*Iempty	*	*	*Itenor	*	*	*Itenor	*	*	*Ialto	*	*
*I"Baſso Ripieno.	*	*	*	*I"Baſso.	*	*	*I"Tenore 2do.	*	*	*I"Tenore 1mo.	*	*	*I"Alto.	*	*
*I'B. rip	*	*	*	*I'B.	*	*	*I'T II	*	*	*I'T I	*	*	*I'A	*	*
*clefC4	*	*	*	*clefC4	*	*	*clefC4	*	*	*clefC3	*	*	*clefC2	*	*
*	*	*	*	*	*	*	*	*	*	*	*	*	*ok[b-b-]	*	*
*k[b-]	*	*	*	*k[b-]	*	*	*k[b-]	*	*	*k[b-]	*	*	*k[b-]	*	*
*d:	*	*	*	*d:	*	*	*d:	*	*	*d:	*	*	*d:	*	*
*M2/1	*	*	*	*M2/1	*	*	*M2/1	*	*	*M2/1	*	*	*M2/1	*	*
*met(C|)	*	*	*	*met(C|)	*	*	*met(C|)	*	*	*met(C|)	*	*	*met(C|)	*	*
=1-	=1-	=1-	=1-	=1-	=1-	=1-	=1-	=1-	=1-	=1-	=1-	=1-	=1-	=1-	=1-
!LO:TX:t=P:problem:przed kluczem inicjał S	!	!	!	!LO:TX:t=P:problem:przed kluczem inicjał S	!	!	!LO:TX:t=P:problem:przed kluczem inicjał S	!	!	!LO:TX:t=P:problem:przed kluczem inicjał S	!	!	!LO:TX:t=P:problem:przed kluczem inicjał S	!	!
!LO:TX:a:t=17.	!	!	!	!LO:TX:a:t=17.	!	!	!	!	!	!	!	!	!	!	!
00rc	.	.	.	00r	.	.	0A	San-	.	2re	.	.	2rc	.	.
*	*	*	*	*	*	*	*	*	*	*2\right	*	*	*	*	*
!	!	!	!	!	!	!	!	!	!	!LO:TX:t=P:problem:kreska pseudotaktowa	!	!	!	!	!
.	.	.	.	.	.	.	.	.	.	2f\	San-	.	2d/	San-	.
.	.	.	.	.	.	.	.	.	.	2f\	-cta	.	2d/	-cta	.
!	!	!	!	!	!	!	!	!	!	!LO:TX:t=P:problem:kreska pseudotaktowa	!	!	!	!	!
.	.	.	.	.	.	.	.	.	.	2f\	Ma-	.	(4d/	Ma-	.
!	!	!	!	!	!	!	!	!	!	!	!	!	!LO:TX:t=P:problem:kreska pseudotaktowa	!	!
.	.	.	.	.	.	.	.	.	.	.	.	.	4e/)	.	.
=2-	=2-	=2-	=2-	=2-	=2-	=2-	=2-	=2-	=2-	=2-	=2-	=2-	=2-	=2-	=2-
*	*	*	*	*	*	*	*	*	*	*	*	*	*2\right	*	*
!	!	!	!	!	!	!	!LO:TX:t=P:problem:kreska pseudotaktowa	!	!	!	!	!	!	!	!
.	.	.	.	.	.	.	1A	-cta	.	2f\	-ri-	.	(2.f\	-ri-	.
.	.	.	.	.	.	.	.	.	.	(4e\	.	.	.	.	.
!	!	!	!	!	!	!	!	!	!	!	!	!	!LO:TX:t=P:problem:kreska pseudotaktowa	!	!
.	.	.	.	.	.	.	.	.	.	4d\)	.	.	4g\)	.	.
.	.	.	.	.	.	.	1A	Ma-	.	2c,<\	-a	.	2a,<\	-a	.
*	*	*	*	*	*	*	*	*	*	*	*	*	*	*ij	*
!	!	!	!	!	!	!	!	!	!	!LO:TX:t=P:problem:kreska pseudotaktowa	!	!	!	!	!
.	.	.	.	.	.	.	.	.	.	2e\	San-	.	2a\	San-	.
=3-	=3-	=3-	=3-	=3-	=3-	=3-	=3-	=3-	=3-	=3-	=3-	=3-	=3-	=3-	=3-
*	*	*	*	*	*	*	*2\right	*	*	*	*	*	*	*	*
00rc	.	.	.	00r	.	.	2.c\	-ri-	.	2.e\	-cta	.	2g\	-cta	.
!	!	!	!	!	!	!	!	!	!	!	!	!	!LO:TX:t=P:problem:kreska pseudotaktowa	!	!
.	.	.	.	.	.	.	.	.	.	.	.	.	2g\	Ma-	.
!	!	!	!	!	!	!	!LO:TX:t=P:problem:kreska pseudotaktowa	!	!	!	!	!	!	!	!
.	.	.	.	.	.	.	[<4d\	.	.	4f\	Ma-	.	.	.	.
.	.	.	.	.	.	.	2d\]	.	.	(2f\	-ri-	.	1b-X	-ri-	.
!	!	!	!	!	!	!	!	!	!	!LO:TX:t=P:problem:kreska pseudotaktowa	!	!	!	!	!
.	.	.	.	.	.	.	2e\	.	.	2g\)	.	.	.	.	.
=4-	=4-	=4-	=4-	=4-	=4-	=4-	=4-	=4-	=4-	=4-	=4-	=4-	=4-	=4-	=4-
!	!	!	!	!	!	!	!LO:TX:t=P:problem:kreska pseudotaktowa	!	!	!	!	!	!	!	!
.	.	.	.	.	.	.	1f	.	.	2f,<\	-a	.	2a,<\	-a	.
*	*	*	*	*	*	*	*	*	*	*	*	*	*	*Xij	*
!	!	!	!	!	!	!	!	!	!	!	!	!	!LO:TX:t=P:problem:kreska pseudotaktowa	!	!
.	.	.	.	.	.	.	.	.	.	(1c\	suc-	.	2f\	suc-	.
.	.	.	.	.	.	.	2e,<\	-a	.	.	.	.	(2g\	-cur-	.
!	!	!	!	!	!	!	!	!	!	!LO:TX:t=P:problem:kreska pseudotaktowa	!	!	!	!	!
.	.	.	.	.	.	.	2c\	suc-	.	2e\)	.	.	2a\)	.	.
=5-	=5-	=5-	=5-	=5-	=5-	=5-	=5-	=5-	=5-	=5-	=5-	=5-	=5-	=5-	=5-
00r	.	.	.	00rc	.	.	(2d\	-cur-	.	2f\	-cur-	.	2b-X,<\	-re	.
.	.	.	.	.	.	.	2e\)	.	.	1e\	.	.	(2.a\	mi-	.
.	.	.	.	.	.	.	2c,<\	-re	.	.	.	.	.	.	.
.	.	.	.	.	.	.	.	.	.	.	.	.	4g\)	.	.
!	!	!	!	!	!	!	!	!	!	!LO:TX:t=P:problem:kreska pseudotaktowa	!	!	!	!	!
.	.	.	.	.	.	.	2.f\	mi-	.	2c\	.	.	4f\	.	.
!	!	!	!	!	!	!	!	!	!	!	!	!	!LO:TX:t=P:problem:kreska pseudotaktowa	!	!
.	.	.	.	.	.	.	.	.	.	.	.	.	4e\	.	.
=6-	=6-	=6-	=6-	=6-	=6-	=6-	=6-	=6-	=6-	=6-	=6-	=6-	=6-	=6-	=6-
.	.	.	.	.	.	.	.	.	.	4f\	.	.	2d/	-se-	.
.	.	.	.	.	.	.	4e\	.	.	4g\	.	.	.	.	.
!	!	!	!	!	!	!	!	!	!	!LO:TX:t=P:problem:kreska pseudotaktowa	!	!	!	!	!
.	.	.	.	.	.	.	1d	.	.	2a\	-re	.	2f\	.	.
!	!	!	!	!	!	!	!	!	!	!LO:LB:g=original	!	!	!	!	!
.	.	.	.	.	.	.	.	.	.	2.e\	mi-	.	1e	-ris	.
!	!	!	!	!	!	!	!LO:TX:t=P:problem:kreska pseudotaktowa	!	!	!	!	!	!	!	!
.	.	.	.	.	.	.	2c\	-se-	.	.	.	.	.	.	.
.	.	.	.	.	.	.	.	.	.	4e\	-ſe-	.	.	.	.
=7-	=7-	=7-	=7-	=7-	=7-	=7-	=7-	=7-	=7-	=7-	=7-	=7-	=7-	=7-	=7-
!	!	!	!	!	!	!	!LO:TX:t=P:problem:kreska pseudotaktowa	!	!	!LO:TX:t=P:problem:kreska pseudotaktowa	!	!	!LO:LB:g=original	!	!
!	!	!	!	!	!	!	!LO:LB:g=original	!	!	!	!	!	!	!	!
00r	.	.	.	00rc	.	.	1d	-ris.	.	[<1f	.	.	2rc	.	.
!	!	!	!	!	!	!	!	!	!	!	!	!	!LO:TX:t=P:problem:kreska pseudotaktowa	!	!
.	.	.	.	.	.	.	.	.	.	.	.	.	2d/	San-	.
.	.	.	.	.	.	.	2rc	.	.	1f]	.	.	2d/	-cta	.
!	!	!	!	!	!	!	!	!	!	!	!	!	!LO:TX:t=P:problem:kreska pseudotaktowa	!	!
.	.	.	.	.	.	.	2f\	San-	.	.	.	.	2d/	Ma-	.
=8-	=8-	=8-	=8-	=8-	=8-	=8-	=8-	=8-	=8-	=8-	=8-	=8-	=8-	=8-	=8-
.	.	.	.	.	.	.	2f\	-cta	.	2f\	-ris	.	1.a	-ri-	.
!	!	!	!	!	!	!	!LO:TX:t=P:problem:kreska pseudotaktowa	!	!	!LO:TX:t=P:problem:kreska pseudotaktowa	!	!	!	!	!
.	.	.	.	.	.	.	2e\	Ma-	.	2r	.	.	.	.	.
.	.	.	.	.	.	.	(2c\	-ri-	.	0r	.	.	.	.	.
!	!	!	!	!	!	!	!	!	!	!	!	!	!LO:TX:t=P:problem:kreska pseudotaktowa	!	!
.	.	.	.	.	.	.	2d\)	.	.	.	.	.	2b-\	-a	.
=9-	=9-	=9-	=9-	=9-	=9-	=9-	=9-	=9-	=9-	=9-	=9-	=9-	=9-	=9-	=9-
!LO:TX:t=P:problem:kreska pseudotaktowa	!	!	!	!LO:TX:t=P:problem:kreska pseudotaktowa	!	!	!	!	!	!	!	!	!	!	!
1r	.	.	.	1r	.	.	2e,<\	-a	.	.	.	.	4a\	suc-	.
.	.	.	.	.	.	.	.	.	.	.	.	.	4g\	.	.
.	.	.	.	.	.	.	2.f\	suc-	.	.	.	.	4f\	.	.
.	.	.	.	.	.	.	.	.	.	.	.	.	4e\	.	.
!	!	!	!	!	!	!	!	!	!	!LO:TX:t=P:problem:kreska pseudotaktowa	!	!	!	!	!
2r	.	.	.	2rF	.	.	.	.	.	1r	.	.	2d/	-cu-	.
.	.	.	.	.	.	.	4e\	.	.	.	.	.	.	.	.
!LO:TX:t=P:problem:kreska pseudotaktowa	!	!	!	!LO:TX:t=P:problem:kreska pseudotaktowa	!	!	!	!	!	!	!	!	!	!	!
2G/	San-	.	.	2G/	San-	.	4d\	.	.	.	.	.	1b-\	-re-	.
!	!	!	!	!	!	!	!LO:TX:t=P:problem:kreska pseudotaktowa	!	!	!	!	!	!	!	!
.	.	.	.	.	.	.	4c\	.	.	.	.	.	.	.	.
=10-	=10-	=10-	=10-	=10-	=10-	=10-	=10-	=10-	=10-	=10-	=10-	=10-	=10-	=10-	=10-
2G/	-cta	.	.	2G/	-cta	.	4d\	-cur-	.	2r	.	.	.	.	.
.	.	.	.	.	.	.	4c\	.	.	.	.	.	.	.	.
!	!	!	!	!LO:TX:t=P:problem:kreska pseudotaktowa	!	!	!	!	!	!LO:TX:t=P:problem:kreska pseudotaktowa	!	!	!	!	!
2F/	.	.	.	2F/	.	.	4B-\	.	.	2d\	San-	.	1a	-mi-	.
.	.	.	.	.	.	.	4A\	.	.	.	.	.	.	.	.
!LO:TX:t=P:problem:kreska pseudotaktowa	!	!	!	!	!	!	!	!	!	!	!	!	!	!	!
1G	Ma-	.	.	1G	Ma-	.	1B-	.	.	2d,<\	-cta	.	.	.	.
.	.	.	.	.	.	.	.	.	.	(4d\	Ma-	.	2g\	-ſe-	.
!	!	!	!	!	!	!	!	!	!	!LO:TX:t=P:problem:kreska pseudotaktowa	!	!	!	!	!
.	.	.	.	.	.	.	.	.	.	4e\)	.	.	.	.	.
=11-	=11-	=11-	=11-	=11-	=11-	=11-	=11-	=11-	=11-	=11-	=11-	=11-	=11-	=11-	=11-
!	!	!	!	!	!	!	!	!	!	!	!	!	!LO:TX:t=P:problem:kreska pseudotaktowa	!	!
4D/	-ri-	.	.	4D/	-ri-	.	(2.A\	-re	.	1f	-ri-	.	1a,<	-ris	.
4E/	.	.	.	4E/	.	.	.	.	.	.	.	.	.	.	.
4F/	.	.	.	4F/	.	.	.	.	.	.	.	.	.	.	.
!LO:TX:t=P:problem:kreska pseudotaktowa	!	!	!	!LO:TX:t=P:problem:kreska pseudotaktowa	!	!	!LO:TX:t=P:problem:kreska pseudotaktowa	!	!	!	!	!	!	!	!
4G/	.	.	.	4G/	.	.	4B-\)	.	.	.	.	.	.	.	.
!	!	!	!	!	!	!	!	!	!	!LO:TX:t=P:problem:kreska pseudotaktowa	!	!	!	!	!
4A\	.	.	.	4A\	.	.	2c\	mi-	.	1e,<	-a	.	00r	.	.
4B-\	.	.	.	4B-\	.	.	.	.	.	.	.	.	.	.	.
4c\	.	.	.	4c\	.	.	1A\	.	.	.	.	.	.	.	.
!	!	!	!	!LO:TX:t=P:problem:kreska pseudotaktowa	!	!	!	!	!	!	!	!	!	!	!
4A\	.	.	.	4A\	.	.	.	.	.	.	.	.	.	.	.
=12-	=12-	=12-	=12-	=12-	=12-	=12-	=12-	=12-	=12-	=12-	=12-	=12-	=12-	=12-	=12-
!LO:TX:t=P:problem:kreska pseudotaktowa	!	!	!	!	!	!	!	!	!	!	!	!	!	!	!
1B-	.	.	.	1B-	.	.	.	.	.	2r	.	.	.	.	.
!	!	!	!	!	!	!	!	!	!	!LO:TX:t=P:problem:kreska pseudotaktowa	!	!	!	!	!
.	.	.	.	.	.	.	2G/	-se-	.	2d\	suc-	.	.	.	.
!	!	!	!	!	!	!	!LO:TX:t=P:problem:kreska pseudotaktowa	!	!	!	!	!	!	!	!
1.A,<	-a	.	.	1.A,<	-a	.	1A	-ris	.	2f\	-cur-	.	.	.	.
!	!	!	!	!	!	!	!	!	!	!LO:TX:t=P:problem:kreska pseudotaktowa	!	!	!	!	!
.	.	.	.	.	.	.	.	.	.	2e\	.	.	.	.	.
=13-	=13-	=13-	=13-	=13-	=13-	=13-	=13-	=13-	=13-	=13-	=13-	=13-	=13-	=13-	=13-
!	!	!	!	!	!	!	!LO:TX:t=P:problem:kreska pseudotaktowa	!	!	!	!	!	!	!	!
.	.	.	.	.	.	.	0r	.	.	2c\	-re	.	.	.	.
!LO:TX:t=P:problem:kreska pseudotaktowa	!	!	!	!LO:TX:t=P:problem:kreska pseudotaktowa	!	!	!	!	!	!	!	!	!	!	!
2G/	suc-	.	.	2G/	suc-	.	.	.	.	1d	mi-	.	.	.	.
*2\right	*	*	*	*2\right	*	*	*	*	*	*	*	*	*	*	*
2B-\	-cur-	.	.	2B-\	-cur-	.	.	.	.	.	.	.	00r	.	.
!LO:TX:t=P:problem:kreska pseudotaktowa	!	!	!	!LO:TX:t=P:problem:kreska pseudotaktowa	!	!	!	!	!	!	!	!	!	!	!
2A\	-re	.	.	2A,<\	-re	.	.	.	.	2c\	-se-	.	.	.	.
=14-	=14-	=14-	=14-	=14-	=14-	=14-	=14-	=14-	=14-	=14-	=14-	=14-	=14-	=14-	=14-
!	!	!	!	!LO:LB:g=original	!	!	!LO:LB:g=original	!	!	!LO:TX:t=P:problem:kreska pseudotaktowa	!	!	!	!	!
2A/	mi-	.	.	2A\	mi-	.	1d	ju-	.	1B-X,<	-ris	.	.	.	.
2G/	-ſe-	.	.	2G/	-ſe-	.	.	.	.	.	.	.	.	.	.
!LO:TX:t=P:problem:kreska pseudotaktowa	!	!	!	!LO:TX:t=P:problem:kreska pseudotaktowa	!	!	!LO:TX:t=P:problem:kreska pseudotaktowa	!	!	!LO:LB:g=original	!	!	!	!	!
1A	-ris	.	.	1A,<	-ris	.	1c	-va	.	2A/	ju-	.	.	.	.
.	.	.	.	.	.	.	.	.	.	2c/	-va	.	.	.	.
=15-	=15-	=15-	=15-	=15-	=15-	=15-	=15-	=15-	=15-	=15-	=15-	=15-	=15-	=15-	=15-
2r	.	.	.	2r	.	.	1.c	pu-	.	(2d\	pu-	.	.	.	.
1A	ju-	.	.	1A	ju-	.	.	.	.	2e\)	.	.	.	.	.
!	!	!	!	!	!	!	!	!	!	!LO:TX:t=P:problem:kreska pseudotaktowa	!	!	!	!	!
.	.	.	.	.	.	.	.	.	.	1f	-sil-	.	00rg	.	.
!LO:TX:t=P:problem:kreska pseudotaktowa	!	!	!	!LO:TX:t=P:problem:kreska pseudotaktowa	!	!	!LO:TX:t=P:problem:kreska pseudotaktowa	!	!	!	!	!	!	!	!
2F/	-va	.	.	2F/	-va	.	2c\	-sil-	.	.	.	.	.	.	.
=16-	=16-	=16-	=16-	=16-	=16-	=16-	=16-	=16-	=16-	=16-	=16-	=16-	=16-	=16-	=16-
!LO:LB:g=original	!	!	!	!	!	!	!	!	!	!	!	!	!	!	!
(4G/	pu-	.	.	(4G/	pu-	.	4B-\	-la	.	2e\	-la	.	.	.	.
4F/)	.	.	.	4F/)	.	.	4A\	.	.	.	.	.	.	.	.
(4E/	-sil-	.	.	(4E/	-sil-	.	4G/	.	.	1d	ni-	.	.	.	.
!LO:TX:t=P:problem:kreska pseudotaktowa	!	!	!	!LO:TX:t=P:problem:kreska pseudotaktowa	!	!	!	!	!	!	!	!	!	!	!
4D/)	.	.	.	4D/)	.	.	4F/	.	.	.	.	.	.	.	.
2.E/	-la-	.	.	2.E/	-la-	.	2.G/	.	.	.	.	.	.	.	.
.	.	.	.	.	.	.	.	.	.	2c#X\	.	.	.	.	.
!	!	!	!	!LO:TX:t=P:problem:kreska pseudotaktowa	!	!	!	!	!	!	!	!	!	!	!
4E/	-ni-	.	.	4E/	-ni-	.	4G/	ni-	.	.	.	.	.	.	.
=17-	=17-	=17-	=17-	=17-	=17-	=17-	=17-	=17-	=17-	=17-	=17-	=17-	=17-	=17-	=17-
!	!	!	!	!	!	!	!	!	!	!LO:TX:t=P:problem:kreska pseudotaktowa	!	!	!	!	!
2D,</	-mes	.	.	2D,</	-mes	.	2A,<\	-mes	.	0.d	-mes	.	.	.	.
1D	re-	.	.	1D	re-	.	1A	re-	.	.	.	.	.	.	.
.	.	.	.	.	.	.	.	.	.	.	.	.	00rg	.	.
!LO:TX:t=P:problem:kreska pseudotaktowa	!	!	!	!LO:TX:t=P:problem:kreska pseudotaktowa	!	!	!LO:TX:t=P:problem:kreska pseudotaktowa	!	!	!	!	!	!	!	!
2D/	-fo-	.	.	2D/	-fo-	.	2A\	-fo-	.	.	.	.	.	.	.
=18-	=18-	=18-	=18-	=18-	=18-	=18-	=18-	=18-	=18-	=18-	=18-	=18-	=18-	=18-	=18-
(2F/	-ve	.	.	(2F/	-ve	.	(2A\	-ve	.	.	.	.	.	.	.
!	!	!	!	!LO:TX:t=P:problem:kreska pseudotaktowa	!	!	!	!	!	!	!	!	!	!	!
2G/)	.	.	.	2G/)	.	.	2B-\)	.	.	.	.	.	.	.	.
2A/	fle-	.	.	2A\	fle-	.	(2c\	fle-	.	2rA	.	.	.	.	.
!LO:TX:t=P:problem:kreska pseudotaktowa	!	!	!	!LO:TX:t=P:problem:kreska pseudotaktowa	!	!	!LO:TX:t=P:problem:kreska pseudotaktowa	!	!	!	!	!	!	!	!
2F/	.	.	.	2F/	.	.	2A\)	.	.	1A/	re-	.	.	.	.
=19-	=19-	=19-	=19-	=19-	=19-	=19-	=19-	=19-	=19-	=19-	=19-	=19-	=19-	=19-	=19-
2.c\	.	.	.	2.c\	.	.	2c\	.	.	.	.	.	.	.	.
!	!	!	!	!	!	!	!	!	!	!LO:TX:t=P:problem:kreska pseudotaktowa	!	!	!	!	!
.	.	.	.	.	.	.	2d\	.	.	2A/	-fo-	.	.	.	.
!LO:TX:t=P:problem:kreska pseudotaktowa	!	!	!	!LO:TX:t=P:problem:kreska pseudotaktowa	!	!	!	!	!	!	!	!	!	!	!
4B-\	.	.	.	4B-\	.	.	.	.	.	.	.	.	.	.	.
2A/	.	.	.	2A/	.	.	2A\	.	.	(2cny\	-ve	.	00r	.	.
(4G/	-bi-	.	.	(4G/	-bi-	.	1B-\	.	.	2d,<\)	.	.	.	.	.
4F/)	.	.	.	4F/)	.	.	.	.	.	.	.	.	.	.	.
=20-	=20-	=20-	=20-	=20-	=20-	=20-	=20-	=20-	=20-	=20-	=20-	=20-	=20-	=20-	=20-
(2G/	-les	.	.	(2G/	-les	.	.	.	.	2e\	fle-	.	.	.	.
!LO:TX:t=P:problem:kreska pseudotaktowa	!	!	!	!LO:TX:t=P:problem:kreska pseudotaktowa	!	!	!LO:TX:t=P:problem:kreska pseudotaktowa	!	!	!	!	!	!	!	!
2A/)	.	.	.	2A/)	.	.	2c\	bi-	.	2c\	-bi-	.	.	.	.
!	!	!	!	!LO:LB:g=original	!	!	!	!	!	!	!	!	!	!	!
4D/	re-	.	.	4D/	re-	.	2d,<\	-les	.	2f,<\	-les	.	.	.	.
4E/	.	.	.	4E/	.	.	.	.	.	.	.	.	.	.	.
!	!	!	!	!	!	!	!LO:TX:t=P:problem:kreska pseudotaktowa	!	!	!LO:TX:t=P:problem:kreska pseudotaktowa	!	!	!	!	!
!	!	!	!	!	!	!	!LO:LB:g=original	!	!	!	!	!	!	!	!
4F/	.	.	.	4F/	.	.	2d\	re-	.	2f\	re-	.	.	.	.
!	!	!	!	!LO:TX:t=P:problem:kreska pseudotaktowa	!	!	!	!	!	!	!	!	!	!	!
4G/	.	.	.	4G/	.	.	.	.	.	.	.	.	.	.	.
=21-	=21-	=21-	=21-	=21-	=21-	=21-	=21-	=21-	=21-	=21-	=21-	=21-	=21-	=21-	=21-
2A\	-fo-	.	.	2A\	-fo-	.	2c\	-fo-	.	2e\	-fo-	.	.	.	.
!LO:SIC:v:t=custos G	!	!LO:TX:t=P:problem:kreska pseudotaktowa	!	!	!	!LO:TX:t=P:problem:kreska pseudotaktowa	!	!	!	!	!	!	!	!	!
!LO:TX:t=P:problem:kreska pseudotaktowa	!	!	!	!	!	!	!	!	!	!	!	!	!	!	!
2A\	-ve	.	.	2A\	-ve	.	2A,<\	-ve	.	2c\	-ve	.	.	.	.
!LO:LB:g=original	!	!	!	!	!	!	!	!	!	!	!	!	!LO:TX:t=P:problem:kreska pseudotaktowa	!	!
2G/	fle-	.	.	2G/	fle-	.	(2B-\	fle-	.	(2d\	fle-	.	1r	.	.
!	!	!	!	!LO:TX:t=P:problem:kreska pseudotaktowa	!	!	!	!	!	!LO:TX:t=P:problem:kreska pseudotaktowa	!	!	!	!	!
2F/	.	.	.	2F/	.	.	2c\)	.	.	2f\)	.	.	.	.	.
=22-	=22-	=22-	=22-	=22-	=22-	=22-	=22-	=22-	=22-	=22-	=22-	=22-	=22-	=22-	=22-
!	!	!	!	!	!	!	!	!	!	!LO:LB:g=original	!	!	!	!	!
(<2G/	.	.	.	(2G/	.	.	1B-	.	.	2e\	.	.	2r	.	.
!	!	!	!	!	!	!	!	!	!	!	!	!	!LO:TX:t=P:problem:kreska pseudotaktowa	!	!
2B-\)	.	.	.	2B-\)	.	.	.	.	.	1d	.	.	2f\	re-	.
!LO:TX:t=P:problem:kreska pseudotaktowa	!	!	!	!LO:TX:t=P:problem:kreska pseudotaktowa	!	!	!	!	!	!	!	!	!	!	!
1A	.	.	.	1A	.	.	2.A\	.	.	.	.	.	2f\	-fo-	.
!	!	!	!	!	!	!	!	!	!	!LO:TX:t=P:problem:kreska pseudotaktowa	!	!	!LO:TX:t=P:problem:kreska pseudotaktowa	!	!
.	.	.	.	.	.	.	.	.	.	2c#X\	-bi-	.	2e\	-ve	.
!	!	!	!	!	!	!	!LO:TX:t=P:problem:kreska pseudotaktowa	!	!	!	!	!	!	!	!
.	.	.	.	.	.	.	4A\	-bi-	.	.	.	.	.	.	.
=23-	=23-	=23-	=23-	=23-	=23-	=23-	=23-	=23-	=23-	=23-	=23-	=23-	=23-	=23-	=23-
2.D/	.	.	.	2.D/	.	.	2A\	-les	.	2d,<\	-les.	.	2f\	fle-	.
!	!	!	!	!	!	!	!LO:TX:t=P:problem:kreska pseudotaktowa	!	!	!LO:TX:t=P:problem:kreska pseudotaktowa	!	!	!	!	!
.	.	.	.	.	.	.	2r	.	.	2f\	San-	.	1d	.	.
4D/	-bi-	.	.	4D/	-bi-	.	.	.	.	.	.	.	.	.	.
!LO:TX:t=P:problem:kreska pseudotaktowa	!	!	!	!LO:TX:t=P:problem:kreska pseudotaktowa	!	!	!LO:TX:t=P:problem:kreska pseudotaktowa	!	!	!	!	!	!	!	!
1A,<	-les	.	.	1A	-les	.	1r	.	.	2f,<\	-cta	.	.	.	.
!	!	!	!	!	!	!	!	!	!	!LO:TX:t=P:problem:kreska pseudotaktowa	!	!	!	!	!
.	.	.	.	.	.	.	.	.	.	2e\	Ma-	.	2c/	.	.
=24-	=24-	=24-	=24-	=24-	=24-	=24-	=24-	=24-	=24-	=24-	=24-	=24-	=24-	=24-	=24-
2r	.	.	.	2r	.	.	2rc	.	.	2f\	-ri-	.	2.d/	.	.
!	!	!	!	!	!	!	!	!	!	!LO:TX:t=P:problem:kreska pseudotaktowa	!	!	!	!	!
2d\	San-	.	.	2d\	San-	.	2f\	San-	.	2d\	.	.	.	.	.
!	!	!	!	!	!	!	!	!	!	!	!	!	!LO:TX:t=P:problem:kreska pseudotaktowa	!	!
.	.	.	.	.	.	.	.	.	.	.	.	.	4d/	-bi-	.
!	!	!	!	!	!	!	!	!	!	!	!	!	!LO:LB:g=original	!	!
2d,<\	-cta	.	.	2d,<\	-cta	.	2f,<\	-cta	.	(2.a\	-a	.	2A,</	-les	.
!LO:TX:t=P:problem:kreska pseudotaktowa	!	!	!	!LO:TX:t=P:problem:kreska pseudotaktowa	!	!	!LO:TX:t=P:problem:kreska pseudotaktowa	!	!	!	!	!	!	!	!
2c\	Ma-	.	.	2c\	Ma-	.	2e\	Ma-	.	.	.	.	2a\	San-	.
.	.	.	.	.	.	.	.	.	.	4g\)	suc-	.	.	.	.
=25-	=25-	=25-	=25-	=25-	=25-	=25-	=25-	=25-	=25-	=25-	=25-	=25-	=25-	=25-	=25-
2d\	-ri-	.	.	2d\	-ri-	.	2f\	-ri-	.	(2f\	-cur-	.	2a,<\	-cta	.
!LO:TX:t=P:problem:kreska pseudotaktowa	!	!	!	!LO:TX:t=P:problem:kreska pseudotaktowa	!	!	!	!	!	!LO:TX:t=P:problem:kreska pseudotaktowa	!	!	!LO:TX:t=P:problem:kreska pseudotaktowa	!	!
2G/	-a	.	.	2G/	-a	.	1d	-a	.	2g\)	.	.	2b-\	Ma-	.
4A\	suc-	.	.	4A\	suc-	.	.	.	.	(2f\	-re	.	(2a\	-ri-	.
4B-\	.	.	.	4B-\	.	.	.	.	.	.	.	.	.	.	.
!	!	!	!	!	!	!	!LO:TX:t=P:problem:kreska pseudotaktowa	!	!	!LO:TX:t=P:problem:kreska pseudotaktowa	!	!	!	!	!
4c\	.	.	.	4c\	.	.	2c\	Ma-	.	2e\)	.	.	2g\)	.	.
4A\	.	.	.	4A\	.	.	.	.	.	.	.	.	.	.	.
=26-	=26-	=26-	=26-	=26-	=26-	=26-	=26-	=26-	=26-	=26-	=26-	=26-	=26-	=26-	=26-
(2B-/	-cur-	.	.	(2B-\	-cur-	.	1d	-ri-	.	2.d\	mi-	.	2f,<\	-a	.
!LO:TX:t=P:problem:kreska pseudotaktowa	!	!	!	!LO:TX:t=P:problem:kreska pseudotaktowa	!	!	!	!	!	!	!	!	!LO:TX:t=P:problem:kreska pseudotaktowa	!	!
2G/)	.	.	.	2G/)	.	.	.	.	.	.	.	.	2g\	suc-	.
.	.	.	.	.	.	.	.	.	.	4e\	-ſe-	.	.	.	.
!	!	!	!	!LO:LB:g=original	!	!	!LO:TX:t=P:problem:kreska pseudotaktowa	!	!	!LO:TX:t=P:problem:kreska pseudotaktowa	!	!	!LO:TX:a:t=P:problem:# above	!	!
2F/	.	.	.	2F/	.	.	1A	-a	.	1f	-ris	.	2c#X/	-cur-	.
4E/	-re	.	.	4E/	-re	.	.	.	.	.	.	.	2d,</	-re	.
!	!	!	!	!LO:TX:t=P:problem:kreska pseudotaktowa	!	!	!	!	!	!	!	!	!	!	!
4D/	.	.	.	4D/	.	.	.	.	.	.	.	.	.	.	.
=27-	=27-	=27-	=27-	=27-	=27-	=27-	=27-	=27-	=27-	=27-	=27-	=27-	=27-	=27-	=27-
!	!	!	!	!	!	!	!	!	!	!LO:SIC:v:t=custos d	!	!	!	!	!
2.A\	mi-	.	.	2.A\	mi-	.	2rc	.	.	1e	suc-	.	2d/	mi-	.
!	!	!	!	!	!	!	!	!	!	!	!	!	!LO:TX:t=P:problem:kreska pseudotaktowa	!	!
.	.	.	.	.	.	.	2e\	suc-	.	.	.	.	2c#X/	-ſe-	.
4A\	-ſe-	.	.	4A\	-ſe-	.	.	.	.	.	.	.	.	.	.
!LO:TX:t=P:problem:kreska pseudotaktowa	!	!	!	!LO:TX:t=P:problem:kreska pseudotaktowa	!	!	!LO:TX:t=P:problem:kreska pseudotaktowa	!	!	!LO:LB:g=original	!	!	!	!	!
1D	-ris	.	.	1D	-ris.	.	1f	-cur-	.	2d\	-cur-	.	2d,</	-ris,	.
.	.	.	.	.	.	.	.	.	.	2A,</	-re	.	2a\	suc-	.
=28-	=28-	=28-	=28-	=28-	=28-	=28-	=28-	=28-	=28-	=28-	=28-	=28-	=28-	=28-	=28-
!LO:LB:g=original	!	!	!	!LO:TX:t=P:problem:kreska pseudotaktowa	!	!	!LO:LB:g=original	!	!	!	!	!	!	!	!
0r	.	.	.	0r	.	.	2d\	-re	.	2B-/	mi-	.	(2g\	-cur-	.
!	!	!	!	!	!	!	!	!	!	!	!	!	!LO:TX:t=P:problem:kreska pseudotaktowa	!	!
.	.	.	.	.	.	.	2.e\	mi-	.	2cny/	.	.	2e\)	.	.
.	.	.	.	.	.	.	.	.	.	2d\	.	.	(2f\	-re	.
.	.	.	.	.	.	.	4d\	.	.	.	.	.	.	.	.
.	.	.	.	.	.	.	1d\	.	.	2B-/	-se-	.	4e\	.	.
.	.	.	.	.	.	.	.	.	.	.	.	.	4d,<\)	.	.
=29-	=29-	=29-	=29-	=29-	=29-	=29-	=29-	=29-	=29-	=29-	=29-	=29-	=29-	=29-	=29-
!	!	!	!	!	!	!	!	!	!	!LO:TX:t=P:problem:kreska pseudotaktowa	!	!	!	!	!
2r	.	.	.	2r	.	.	.	.	.	1A	-ris	.	2.e\	mi-	.
2A\	Ju-	.	.	2A\	Ju-	.	2c#X\	-se-	.	.	.	.	.	.	.
.	.	.	.	.	.	.	.	.	.	.	.	.	4e\	-ſe-	.
!LO:TX:t=P:problem:kreska pseudotaktowa	!	!	!	!LO:TX:t=P:problem:kreska pseudotaktowa	!	!	!LO:TX:t=P:problem:kreska pseudotaktowa	!	!	!	!	!	!LO:TX:t=P:problem:kreska pseudotaktowa	!	!
1B-	-va	.	.	1B-,<	-va	.	1d	-ris	.	2r	.	.	1d	-ris	.
.	.	.	.	.	.	.	.	.	.	2d\	ju-	.	.	.	.
=30-	=30-	=30-	=30-	=30-	=30-	=30-	=30-	=30-	=30-	=30-	=30-	=30-	=30-	=30-	=30-
!	!	!	!	!	!	!	!LO:TX:t=P:problem:kreska pseudotaktowa	!	!	!LO:TX:t=P:problem:kreska pseudotaktowa	!	!	!	!	!
(2A/	pu-	.	.	(2A/	pu-	.	1r	.	.	1f	-va	.	2r	.	.
!	!	!	!	!LO:TX:t=P:problem:kreska pseudotaktowa	!	!	!	!	!	!	!	!	!LO:TX:t=P:problem:kreska pseudotaktowa	!	!
2F/)	.	.	.	2F/)	.	.	.	.	.	.	.	.	2a\	ju-	.
2G/	-sil-	.	.	(2G/	-sil-	.	2rc	.	.	(2e\	pu-	.	2b-,<\	-va	.
!LO:TX:t=P:problem:kreska pseudotaktowa	!	!	!	!LO:TX:t=P:problem:kreska pseudotaktowa	!	!	!	!	!	!	!	!	!	!	!
2A/	.	.	.	2A/)	.	.	2e\	ju-	.	2c\)	.	.	2a\	pu-	.
=31-	=31-	=31-	=31-	=31-	=31-	=31-	=31-	=31-	=31-	=31-	=31-	=31-	=31-	=31-	=31-
!	!	!	!	!	!	!	!LO:TX:t=P:problem:kreska pseudotaktowa	!	!	!	!	!	!LO:LB:g=original	!	!
4D/	-la-	.	.	4D/	-la-	.	1f	-va	.	2d\	-sil-	.	2f\	-sil-	.
(4E/	.	.	.	4E/	.	.	.	.	.	.	.	.	.	.	.
!	!	!	!	!	!	!	!	!	!	!LO:TX:t=P:problem:kreska pseudotaktowa	!	!	!	!	!
4F/	.	.	.	4F/	.	.	.	.	.	2d\	-la	.	(2.a\	-la	.
4G/)	.	.	.	4G/	.	.	.	.	.	.	.	.	.	.	.
!	!	!	!	!LO:TX:t=P:problem:kreska pseudotaktowa	!	!	!	!	!	!	!	!	!	!	!
1A	.	.	.	1A	.	.	2e\	pu-	.	2c\	.	.	.	.	.
.	.	.	.	.	.	.	.	.	.	.	.	.	8g\L)	.	.
.	.	.	.	.	.	.	.	.	.	.	.	.	8f\J	.	.
.	.	.	.	.	.	.	2cny\	-sil-	.	2.e\	.	.	2e\	ni-	.
=32-	=32-	=32-	=32-	=32-	=32-	=32-	=32-	=32-	=32-	=32-	=32-	=32-	=32-	=32-	=32-
!	!	!	!	!	!	!	!	!	!	!	!	!	!LO:TX:t=P:problem:kreska pseudotaktowa	!	!
2G/	.	.	.	2G/	.	.	2.d\	-la-	.	.	.	.	1g,<	-mes	.
.	.	.	.	.	.	.	.	.	.	4d\	.	.	.	.	.
!LO:TX:t=P:problem:kreska pseudotaktowa	!	!	!	!LO:TX:t=P:problem:kreska pseudotaktowa	!	!	!	!	!	!	!	!	!	!	!
2F/	.	.	.	2F/	.	.	.	.	.	1d	ni-	.	.	.	.
.	.	.	.	.	.	.	4d\	-ni-	.	.	.	.	.	.	.
2.E/	.	.	.	2.E/	.	.	2e,<\	-mes	.	.	.	.	2r	.	.
!	!	!	!	!	!	!	!LO:TX:t=P:problem:kreska pseudotaktowa	!	!	!	!	!	!LO:TX:t=P:problem:kreska pseudotaktowa	!	!
.	.	.	.	.	.	.	2e\	re-	.	2c#X\	.	.	2g\	re-	.
4E/	-ni-	.	.	4E/	-ni-	.	.	.	.	.	.	.	.	.	.
=33-	=33-	=33-	=33-	=33-	=33-	=33-	=33-	=33-	=33-	=33-	=33-	=33-	=33-	=33-	=33-
!LO:TX:t=P:problem:kreska pseudotaktowa	!	!	!	!LO:TX:t=P:problem:kreska pseudotaktowa	!	!	!	!	!	!LO:TX:t=P:problem:kreska pseudotaktowa	!	!	!	!	!
1D	-mes.	.	.	1D	-mes	.	2.A\	.	.	1d	-mes	.	2g\	-fo-	.
!	!	!	!	!	!	!	!	!	!	!	!	!	!LO:TX:t=P:problem:kreska pseudotaktowa	!	!
.	.	.	.	.	.	.	.	.	.	.	.	.	2f\	-ve	.
.	.	.	.	.	.	.	4B-\	-fo-	.	.	.	.	.	.	.
!	!	!	!	!LO:LB:g=original	!	!	!	!	!	!LO:TX:a:t=1.	!	!	!	!	!
!LO:TX:t=P:problem:kreska pseudotaktowa	!	!	!	!LO:TX:t=P:problem:kreska pseudotaktowa	!	!	!	!	!	!LO:TX:t=P:problem:kreska pseudotaktowa	!	!	!	!	!
0r	.	.	.	0r	.	.	2c,<\	-ve	.	1rg	.	.	2e/	fle-	.
.	.	.	.	.	.	.	1d\	fle-	.	.	.	.	2d/	-bi-	.
=34-	=34-	=34-	=34-	=34-	=34-	=34-	=34-	=34-	=34-	=34-	=34-	=34-	=34-	=34-	=34-
!	!	!	!	!	!	!	!	!	!	!	!	!	!LO:TX:t=P:problem:kreska pseudotaktowa	!	!
.	.	.	.	.	.	.	.	.	.	1.A	O-	.	1e,<	-les,	.
!	!	!	!	!	!	!	!LO:TX:t=P:problem:kreska pseudotaktowa	!	!	!	!	!	!	!	!
.	.	.	.	.	.	.	2c\	-bi-	.	.	.	.	.	.	.
!	!	!	!	!	!	!	!LO:SIC:v:t=custos A	!	!	!	!	!	!	!	!
1D	O-	.	.	1D	O-	.	2d,<\	-les	.	.	.	.	2r	.	.
!	!	!	!	!	!	!	!LO:TX:t=P:problem:kreska pseudotaktowa	!	!	!LO:TX:t=P:problem:kreska pseudotaktowa	!	!	!	!	!
!	!	!	!	!	!	!	!LO:LB:g=original	!	!	!	!	!	!	!	!
.	.	.	.	.	.	.	2A\	O-	.	2A/	-ra	.	2f\	O-	.
=35-	=35-	=35-	=35-	=35-	=35-	=35-	=35-	=35-	=35-	=35-	=35-	=35-	=35-	=35-	=35-
!	!	!	!	!	!	!	!	!	!	!LO:TX:t=P:problem:kreska pseudotaktowa	!	!	!	!	!
!	!	!	!	!	!	!	!	!	!	!LO:LB:g=original	!	!	!	!	!
2D/	-ra	.	.	2D,</	-ra	.	2A,<\	-ra	.	1A	o-	.	2f,<\	-ra	.
!LO:TX:t=P:problem:kreska pseudotaktowa	!	!	!	!LO:TX:t=P:problem:kreska pseudotaktowa	!	!	!LO:TX:t=P:problem:kreska pseudotaktowa	!	!	!	!	!	!LO:TX:t=P:problem:kreska pseudotaktowa	!	!
2D/	pro	.	.	2D/	pro	.	2A\	pro	.	.	.	.	2f\	pro	.
2D/	po-	.	.	2D/	po-	.	2A\	po-	.	2d,<\	-ra	.	2.f\	po-	.
!	!	!	!	!LO:TX:t=P:problem:kreska pseudotaktowa	!	!	!	!	!	!	!	!	!	!	!
2D/	-pu-	.	.	2D/	-pu-	.	2A\	-pu-	.	2d\	pro	.	.	.	.
.	.	.	.	.	.	.	.	.	.	.	.	.	4f\	-pu-	.
=36-	=36-	=36-	=36-	=36-	=36-	=36-	=36-	=36-	=36-	=36-	=36-	=36-	=36-	=36-	=36-
!LO:SIC:v:t=custos A	!	!	!	!	!	!	!	!	!	!	!	!	!	!	!
2A\	-lo	.	.	2A,<\	-lo	.	2c,<\	-lo	.	2d\	po-	.	2e,<\	-lo,	.
!LO:LB:g=original	!	!	!	!	!	!	!	!	!	!	!	!	!	!	!
1A	in-	.	.	1A	in-	.	1c	in-	.	2cny\	-pu-	.	2a\	O-	.
.	.	.	.	.	.	.	.	.	.	2f,<\	-lo	.	2a,<\	-ra	.
!LO:TX:t=P:problem:kreska pseudotaktowa	!	!	!	!LO:TX:t=P:problem:kreska pseudotaktowa	!	!	!LO:TX:t=P:problem:kreska pseudotaktowa	!	!	!	!	!	!LO:TX:t=P:problem:kreska pseudotaktowa	!	!
2A\	-ter-	.	.	2A\	-ter-	.	2c\	-ter-	.	2f\	in-	.	2a\	pro	.
=37-	=37-	=37-	=37-	=37-	=37-	=37-	=37-	=37-	=37-	=37-	=37-	=37-	=37-	=37-	=37-
!	!	!	!	!	!	!	!	!	!	!LO:TX:t=P:problem:kreska pseudotaktowa	!	!	!LO:LB:g=original	!	!
2A\	-ve-	.	.	2A\	-ve-	.	2c\	-ce-	.	1e	-ter-	.	2a\	po-	.
!LO:TX:t=P:problem:kreska pseudotaktowa	!	!	!	!LO:TX:t=P:problem:kreska pseudotaktowa	!	!	!LO:TX:t=P:problem:kreska pseudotaktowa	!	!	!	!	!	!	!	!
2A\	-ni	.	.	2A,<\	-ni	.	2c,<\	-de	.	.	.	.	2a\	-pu-	.
!	!	!	!	!	!	!	!	!	!	!	!	!	!LO:TX:t=P:problem:kreska pseudotaktowa	!	!
(2B-\	pro	.	.	(2B-\	pro	.	2.d\	pro	.	2g\	.	.	1d,<	-lo	.
!	!	!	!	!LO:TX:t=P:problem:kreska pseudotaktowa	!	!	!	!	!	!	!	!	!	!	!
2G/)	.	.	.	2G\)	.	.	.	.	.	2g\	-ve-	.	.	.	.
.	.	.	.	.	.	.	(8c\L	Cle-	.	.	.	.	.	.	.
.	.	.	.	.	.	.	8B-\J)	.	.	.	.	.	.	.	.
=38-	=38-	=38-	=38-	=38-	=38-	=38-	=38-	=38-	=38-	=38-	=38-	=38-	=38-	=38-	=38-
!	!	!	!	!	!	!	!LO:TX:t=P:problem:kreska pseudotaktowa	!	!	!	!	!	!	!	!
2d,<\	.	.	.	2d,<\	.	.	1A,<	-ro	.	2f,<\	-ni	.	2r	.	.
!LO:TX:t=P:problem:kreska pseudotaktowa	!	!	!	!LO:TX:t=P:problem:kreska pseudotaktowa	!	!	!	!	!	!LO:TX:t=P:problem:kreska pseudotaktowa	!	!	!LO:TX:t=P:problem:kreska pseudotaktowa	!	!
2d\	Cle-	.	.	2d\	Cle-	.	.	.	.	2f\	pro	.	2a\	in-	.
(2c\	.	.	.	(2c\	.	.	2r	.	.	(2e\	Cle-	.	2a\	-ter-	.
2B-\)	.	.	.	2B-\)	.	.	1d\	in-	.	2d\)	.	.	2g\	-ve-	.
=39-	=39-	=39-	=39-	=39-	=39-	=39-	=39-	=39-	=39-	=39-	=39-	=39-	=39-	=39-	=39-
!LO:TX:t=P:problem:kreska pseudotaktowa	!	!	!	!LO:TX:t=P:problem:kreska pseudotaktowa	!	!	!	!	!	!LO:TX:t=P:problem:kreska pseudotaktowa	!	!	!	!	!
1A	-ro,	.	.	1A	-ro,	.	.	.	.	1e,<	-ro	.	2a,<\	-ni	.
!	!	!	!	!	!	!	!	!	!	!	!	!	!LO:TX:t=P:problem:kreska pseudotaktowa	!	!
.	.	.	.	.	.	.	2c\	-ter	.	.	.	.	2a\	pro	.
!	!	!	!	!LO:TX:t=P:problem:kreska pseudotaktowa	!	!	!	!	!	!LO:TX:t=P:problem:kreska pseudotaktowa	!	!	!	!	!
0r	.	.	.	0r	.	.	2d\	ve-	.	00r	.	.	(2f\	Cle-	.
!	!	!	!	!	!	!	!LO:TX:t=P:problem:kreska pseudotaktowa	!	!	!	!	!	!	!	!
.	.	.	.	.	.	.	2d\	-ni	.	.	.	.	2g\)	.	.
=40-	=40-	=40-	=40-	=40-	=40-	=40-	=40-	=40-	=40-	=40-	=40-	=40-	=40-	=40-	=40-
!	!	!	!	!	!	!	!LO:TX:t=P:problem:kreska pseudotaktowa	!	!	!	!	!	!	!	!
.	.	.	.	.	.	.	1f	pro	.	.	.	.	4d/	.	.
.	.	.	.	.	.	.	.	.	.	.	.	.	(4e/	.	.
.	.	.	.	.	.	.	.	.	.	.	.	.	4f/	.	.
.	.	.	.	.	.	.	.	.	.	.	.	.	4g/)	.	.
!	!	!	!	!LO:LB:g=original	!	!	!LO:LB:g=original	!	!	!	!	!	!	!	!
2rF	.	.	.	2rF	.	.	2e\	Cle-	.	.	.	.	2a\	.	.
!LO:TX:t=P:problem:kreska pseudotaktowa	!	!	!	!LO:TX:t=P:problem:kreska pseudotaktowa	!	!	!	!	!	!	!	!	!	!	!
2G/	in-	.	.	2G/	in-	.	2.d\	.	.	.	.	.	1b-\	.	.
=41-	=41-	=41-	=41-	=41-	=41-	=41-	=41-	=41-	=41-	=41-	=41-	=41-	=41-	=41-	=41-
2B-\	-ter-	.	.	(2B-\	-ter-	.	.	.	.	.	.	.	.	.	.
.	.	.	.	.	.	.	4c\	.	.	.	.	.	.	.	.
!	!	!	!	!LO:TX:t=P:problem:kreska pseudotaktowa	!	!	!	!	!	!	!	!	!	!	!
2F/	.	.	.	2F/)	.	.	4B-\	.	.	.	.	.	1a\	.	.
!	!	!	!	!	!	!	!LO:TX:t=P:problem:kreska pseudotaktowa	!	!	!	!	!	!	!	!
.	.	.	.	.	.	.	4A\	.	.	.	.	.	.	.	.
2.G/	-ce-	.	.	2.G/	-ce-	.	1B-X	.	.	2r	.	.	.	.	.
!	!	!	!	!	!	!	!	!	!	!LO:TX:t=P:problem:kreska pseudotaktowa	!	!	!	!	!
.	.	.	.	.	.	.	.	.	.	2d\	in-	.	2g\	.	.
8F/L	.	.	.	8F/L	.	.	.	.	.	.	.	.	.	.	.
!LO:TX:t=P:problem:kreska pseudotaktowa	!	!	!	!	!	!	!	!	!	!	!	!	!	!	!
8E/J	.	.	.	8E/J	.	.	.	.	.	.	.	.	.	.	.
=42-	=42-	=42-	=42-	=42-	=42-	=42-	=42-	=42-	=42-	=42-	=42-	=42-	=42-	=42-	=42-
!	!	!	!	!	!	!	!LO:TX:t=P:problem:kreska pseudotaktowa	!	!	!	!	!	!LO:TX:t=P:problem:kreska pseudotaktowa	!	!
2D,</	-de	.	.	2D,</	-de	.	1A	-ro.	.	2f\	-ter-	.	1a,<	-vo,	.
!	!	!	!	!LO:TX:t=P:problem:kreska pseudotaktowa	!	!	!	!	!	!	!	!	!	!	!
2A\	pro	.	.	2A\	pro	.	.	.	.	2c\	-ce-	.	.	.	.
2G/	de-	.	.	2G/	de-	.	00rc	.	.	2d,<\	-de	.	0r	.	.
!LO:SIC:v:t=custos A	!	!LO:TX:t=P:problem:kreska pseudotaktowa	!	!	!	!	!	!	!	!LO:TX:t=P:problem:kreska pseudotaktowa	!	!	!	!	!
!LO:TX:t=P:problem:kreska pseudotaktowa	!	!	!	!	!	!	!	!	!	!	!	!	!	!	!
[<2B-\	-vo-	.	.	[2B-/	-vo-	.	.	.	.	2d\	pro	.	.	.	.
=43-	=43-	=43-	=43-	=43-	=43-	=43-	=43-	=43-	=43-	=43-	=43-	=43-	=43-	=43-	=43-
!LO:LB:g=original	!	!	!	!	!	!	!	!	!	!LO:LB:g=original	!	!	!	!	!
!LO:TX:t=P:problem:brak zakończenia ligatury	!	!	!	!	!	!	!	!	!	!	!	!	!	!	!
2B-\]	.	.	.	2B-/]	.	.	.	.	.	2c/	de-	.	.	.	.
1A	.	.	.	1A	.	.	.	.	.	4B-/	.	.	.	.	.
.	.	.	.	.	.	.	.	.	.	4A/	.	.	.	.	.
!	!	!	!	!	!	!	!	!	!	!	!	!	!LO:TX:t=P:problem:kreska pseudotaktowa	!	!
.	.	.	.	.	.	.	.	.	.	1B-	-vo-	.	1r	.	.
!LO:TX:t=P:problem:kreska pseudotaktowa	!	!	!	!LO:TX:t=P:problem:kreska pseudotaktowa	!	!	!	!	!	!	!	!	!	!	!
2G,</	-to	.	.	2G,</	-to	.	.	.	.	.	.	.	.	.	.
=44-	=44-	=44-	=44-	=44-	=44-	=44-	=44-	=44-	=44-	=44-	=44-	=44-	=44-	=44-	=44-
2A\	Fae-	.	.	2A\	Fae-	.	.	.	.	2A,</	-to	.	1.e	in-	.
2.A\	-mi-	.	.	2.A\	-mi-	.	.	.	.	2c\	fae-	.	.	.	.
.	.	.	.	.	.	.	0r	.	.	2c\	-mi-	.	.	.	.
4A\	-ne-	.	.	4A\	-ne-	.	.	.	.	.	.	.	.	.	.
!	!	!	!	!	!	!	!	!	!	!	!	!	!LO:SIC:v:t=custos g	!	!
!LO:TX:t=P:problem:kreska pseudotaktowa	!	!	!	!LO:TX:t=P:problem:kreska pseudotaktowa	!	!	!	!	!	!LO:TX:t=P:problem:kreska pseudotaktowa	!	!	!LO:TX:t=P:problem:kreska pseudotaktowa	!	!
2A\	-o	.	.	2A\	-o	.	.	.	.	2c\	-ne-	.	2f\	-ter-	.
=45-	=45-	=45-	=45-	=45-	=45-	=45-	=45-	=45-	=45-	=45-	=45-	=45-	=45-	=45-	=45-
!	!	!	!	!	!	!	!	!	!	!	!	!	!LO:LB:g=original	!	!
(2G/	se-	.	.	(2G/	se-	.	.	.	.	2d,<\	-o	.	2g\	-ce-	.
2F/)	.	.	.	2F/)	.	.	.	.	.	1f	se-	.	2.a\	.	.
!LO:TX:t=P:problem:kreska pseudotaktowa	!	!	!	!LO:TX:t=P:problem:kreska pseudotaktowa	!	!	!LO:TX:t=P:problem:kreska pseudotaktowa	!	!	!	!	!	!	!	!
1c	-xu	.	.	1c	-xu	.	1r	.	.	.	.	.	.	.	.
.	.	.	.	.	.	.	.	.	.	.	.	.	8g\L	.	.
.	.	.	.	.	.	.	.	.	.	.	.	.	8f\J	.	.
!	!	!	!	!	!	!	!	!	!	!	!	!	!LO:TX:t=P:problem:kreska pseudotaktowa	!	!
.	.	.	.	.	.	.	.	.	.	2e\	.	.	2g\	.	.
=46-	=46-	=46-	=46-	=46-	=46-	=46-	=46-	=46-	=46-	=46-	=46-	=46-	=46-	=46-	=46-
!	!	!	!	!	!	!	!	!	!	!LO:TX:t=P:problem:kreska pseudotaktowa	!	!	!	!	!
2rF	.	.	.	2r	.	.	1.c	in-	.	0f	-xu	.	2a,<\	-de	.
1F	in-	.	.	1F	in-	.	.	.	.	.	.	.	1a	in-	.
!LO:TX:t=P:problem:kreska pseudotaktowa	!	!	!	!LO:TX:t=P:problem:kreska pseudotaktowa	!	!	!LO:TX:t=P:problem:kreska pseudotaktowa	!	!	!	!	!	!LO:TX:t=P:problem:kreska pseudotaktowa	!	!
2F/	-ter-	.	.	2F/	-ter-	.	2c\	-ter-	.	.	.	.	2a\	-ter-	.
=47-	=47-	=47-	=47-	=47-	=47-	=47-	=47-	=47-	=47-	=47-	=47-	=47-	=47-	=47-	=47-
!	!	!	!	!LO:LB:g=original	!	!	!	!	!	!	!	!	!	!	!
2F/	-ce-	.	.	2F/	-ce-	.	2c\	-ce-	.	0r	.	.	2a\	-ce-	.
!	!	!	!	!LO:TX:t=P:problem:kreska pseudotaktowa	!	!	!LO:TX:t=P:problem:kreska pseudotaktowa	!	!	!	!	!	!LO:TX:t=P:problem:kreska pseudotaktowa	!	!
2F,</	-de	.	.	2F/	-de	.	2c\	-de	.	.	.	.	2a\	-de	.
2B-\	pro	.	.	2B-\	pro	.	2d\	pro	.	.	.	.	(4b-\	pro	.
.	.	.	.	.	.	.	.	.	.	.	.	.	4a\)	.	.
!	!	!	!	!LO:TX:t=P:problem:kreska pseudotaktowa	!	!	!	!	!	!	!	!	!	!	!
2d\	de-	.	.	2d\	de-	.	2.f\	de-	.	.	.	.	(4g\	de-	.
.	.	.	.	.	.	.	.	.	.	.	.	.	4f\)	.	.
=48-	=48-	=48-	=48-	=48-	=48-	=48-	=48-	=48-	=48-	=48-	=48-	=48-	=48-	=48-	=48-
!LO:TX:t=P:problem:kreska pseudotaktowa	!	!	!	!LO:TX:t=P:problem:kreska pseudotaktowa	!	!	!	!	!	!	!	!	!	!	!
1c	-vo-	.	.	1c	-vo-	.	.	.	.	2r	.	.	1g	-vo-	.
.	.	.	.	.	.	.	8e\L	.	.	.	.	.	.	.	.
.	.	.	.	.	.	.	8d\J	.	.	.	.	.	.	.	.
!	!	!	!	!	!	!	!LO:TX:t=P:problem:kreska pseudotaktowa	!	!	!	!	!	!	!	!
.	.	.	.	.	.	.	2e\	.	.	1c	in-	.	.	.	.
1.F,<	-to	.	.	1.F	-to	.	2f\	-vo-	.	.	.	.	2a,<\	-to	.
!	!	!	!	!	!	!	!	!	!	!LO:TX:t=P:problem:kreska pseudotaktowa	!	!	!	!	!
.	.	.	.	.	.	.	1f,<\	-to	.	2c\	-ter-	.	1a\	Fae-	.
=49-	=49-	=49-	=49-	=49-	=49-	=49-	=49-	=49-	=49-	=49-	=49-	=49-	=49-	=49-	=49-
.	.	.	.	.	.	.	.	.	.	2c\	-ce-	.	.	.	.
!	!	!	!	!LO:TX:t=P:problem:kreska pseudotaktowa	!	!	!LO:TX:t=P:problem:kreska pseudotaktowa	!	!	!LO:TX:t=P:problem:kreska pseudotaktowa	!	!	!LO:TX:t=P:problem:kreska pseudotaktowa	!	!
2C/	Fae-	.	.	2C/	Fae-	.	2e\	fae-	.	2c\	-de	.	2g\	.	.
!	!	!	!	!	!	!	!LO:LB:g=original	!	!	!	!	!	!	!	!
2D/	-mi-	.	.	2D/	-mi-	.	2.d\	-mi-	.	1A	pro	.	2.f\	-mi-	.
!LO:SIC:v:t=custos A	!	!LO:TX:t=P:problem:kreska pseudotaktowa	!	!	!	!	!	!	!	!	!	!	!	!	!
!LO:TX:t=P:problem:kreska pseudotaktowa	!	!	!	!	!	!	!	!	!	!	!	!	!	!	!
2D/	-ne-	.	.	2D/	-ne-	.	.	.	.	.	.	.	.	.	.
.	.	.	.	.	.	.	4d\	-ne-	.	.	.	.	4f\	-ne-	.
=50-	=50-	=50-	=50-	=50-	=50-	=50-	=50-	=50-	=50-	=50-	=50-	=50-	=50-	=50-	=50-
!LO:LB:g=original	!	!	!	!	!	!	!	!	!	!	!	!	!	!	!
2A\	-o	.	.	2A,<\	-o	.	2c,<\	-o	.	(2.c\	de-	.	2e,<\	-o	.
!	!	!	!	!	!	!	!LO:TX:t=P:problem:kreska pseudotaktowa	!	!	!	!	!	!LO:TX:t=P:problem:kreska pseudotaktowa	!	!
1A	se-	.	.	1A	se-	.	2c\	fae-	.	.	.	.	2a\	fae-	.
.	.	.	.	.	.	.	.	.	.	4d\)	.	.	.	.	.
.	.	.	.	.	.	.	2c\	-mi-	.	2e\	-vo-	.	2a\	-mi-	.
!LO:TX:t=P:problem:kreska pseudotaktowa	!	!	!	!LO:TX:t=P:problem:kreska pseudotaktowa	!	!	!	!	!	!LO:TX:t=P:problem:kreska pseudotaktowa	!	!	!	!	!
2F/	.	.	.	2F/	.	.	2c\	-ne-	.	2f,<\	-to	.	2a\	-ne-	.
=51-	=51-	=51-	=51-	=51-	=51-	=51-	=51-	=51-	=51-	=51-	=51-	=51-	=51-	=51-	=51-
!	!	!	!	!	!	!	!LO:TX:t=P:problem:kreska pseudotaktowa	!	!	!LO:LB:g=original	!	!	!LO:TX:t=P:problem:kreska pseudotaktowa	!	!
1G	.	.	.	1G	.	.	1B-X	-o	.	1d	se-	.	1g,<	-o	.
!LO:TX:t=P:problem:kreska pseudotaktowa	!	!	!	!LO:TX:t=P:problem:kreska pseudotaktowa	!	!	!LO:TX:t=P:problem:kreska pseudotaktowa	!	!	!LO:TX:t=P:problem:kreska pseudotaktowa	!	!	!LO:LB:g=original	!	!
0A	-xu	.	.	0A	-xu	.	0A	se-	.	1c	-xu	.	1.e	se-	.
=52-	=52-	=52-	=52-	=52-	=52-	=52-	=52-	=52-	=52-	=52-	=52-	=52-	=52-	=52-	=52-
.	.	.	.	.	.	.	.	.	.	2r	.	.	.	.	.
.	.	.	.	.	.	.	.	.	.	1e	pro	.	4d/	.	.
!	!	!	!	!	!	!	!	!	!	!	!	!	!LO:TX:t=P:problem:kreska pseudotaktowa	!	!
.	.	.	.	.	.	.	.	.	.	.	.	.	4cny/	.	.
!	!	!	!	!	!	!	!LO:TX:t=P:problem:kreska pseudotaktowa	!	!	!	!	!	!LO:TX:t=P:problem:kreska pseudotaktowa	!	!
2r	.	.	.	2r	.	.	0A	-xu,	.	.	.	.	0c	-xu,	.
!	!	!	!	!	!	!	!	!	!	!LO:TX:t=P:problem:kreska pseudotaktowa	!	!	!	!	!
1A\	pro	.	.	1A\	pro	.	.	.	.	2e\	de-	.	.	.	.
=53-	=53-	=53-	=53-	=53-	=53-	=53-	=53-	=53-	=53-	=53-	=53-	=53-	=53-	=53-	=53-
.	.	.	.	.	.	.	.	.	.	2f\	-vo-	.	.	.	.
!LO:TX:t=P:problem:kreska pseudotaktowa	!	!	!	!LO:TX:t=P:problem:kreska pseudotaktowa	!	!	!	!	!	!	!	!	!	!	!
2A\	de-	.	.	2A\	de-	.	.	.	.	2.e\	-to	.	.	.	.
!	!	!	!	!	!	!	!	!	!	!	!	!	!LO:TX:t=P:problem:kreska pseudotaktowa	!	!
2c\	-vo-	.	.	2c\	-vo-	.	0rd	.	.	.	.	.	0r	.	.
.	.	.	.	.	.	.	.	.	.	4d/	.	.	.	.	.
2.A/	.	.	.	(2.A/	.	.	.	.	.	4c/	.	.	.	.	.
!	!	!	!	!	!	!	!	!	!	!LO:TX:t=P:problem:kreska pseudotaktowa	!	!	!	!	!
.	.	.	.	.	.	.	.	.	.	4B-/	.	.	.	.	.
=54-	=54-	=54-	=54-	=54-	=54-	=54-	=54-	=54-	=54-	=54-	=54-	=54-	=54-	=54-	=54-
.	.	.	.	.	.	.	.	.	.	2A,</	.	.	.	.	.
4G/	.	.	.	4G/	.	.	.	.	.	.	.	.	.	.	.
4F/	.	.	.	4F/)	.	.	.	.	.	1d	se-	.	.	.	.
!LO:TX:t=P:problem:kreska pseudotaktowa	!	!	!	!LO:TX:t=P:problem:kreska pseudotaktowa	!	!	!	!	!	!	!	!	!	!	!
4E/	.	.	.	4E/	.	.	.	.	.	.	.	.	.	.	.
!	!	!	!	!LO:LB:g=original	!	!	!LO:TX:t=P:problem:kreska pseudotaktowa	!	!	!	!	!	!	!	!
2D,</	-to	.	.	2D,</	-to	.	1re	.	.	.	.	.	2rg	.	.
1F/	se-	.	.	(1F/	se-	.	.	.	.	2c\	.	.	1a\	sen-	.
=55-	=55-	=55-	=55-	=55-	=55-	=55-	=55-	=55-	=55-	=55-	=55-	=55-	=55-	=55-	=55-
!	!	!	!	!	!	!	!	!	!	!LO:TX:t=P:problem:kreska pseudotaktowa	!	!	!	!	!
.	.	.	.	.	.	.	2rc	.	.	1d	-xu	.	.	.	.
!	!	!	!	!	!	!	!	!	!	!	!	!	!LO:TX:t=P:problem:kreska pseudotaktowa	!	!
2G/	.	.	.	2G/)	.	.	1d	sen-	.	.	.	.	2g\	-ti-	.
!LO:TX:t=P:problem:kreska pseudotaktowa	!	!	!	!LO:TX:t=P:problem:kreska pseudotaktowa	!	!	!	!	!	!LO:TX:t=P:problem:kreska pseudotaktowa	!	!	!	!	!
1A	-xu:	.	.	1A	-xu:	.	.	.	.	00re	.	.	(2f\	-ant	.
!	!	!	!	!	!	!	!LO:TX:t=P:problem:kreska pseudotaktowa	!	!	!	!	!	!	!	!
.	.	.	.	.	.	.	2c\	.	.	.	.	.	2e,<\)	.	.
=56-	=56-	=56-	=56-	=56-	=56-	=56-	=56-	=56-	=56-	=56-	=56-	=56-	=56-	=56-	=56-
0r	.	.	.	0r	.	.	2.f\	.	.	.	.	.	2d/	om-	.
!	!	!	!	!	!	!	!	!	!	!	!	!	!LO:TX:t=P:problem:kreska pseudotaktowa	!	!
.	.	.	.	.	.	.	.	.	.	.	.	.	2f,<\	-nes	.
.	.	.	.	.	.	.	4f\	-ti-	.	.	.	.	.	.	.
.	.	.	.	.	.	.	2en,<\	-ant	.	.	.	.	4g\	sen-	.
.	.	.	.	.	.	.	.	.	.	.	.	.	4f\	.	.
.	.	.	.	.	.	.	1d\	o-	.	.	.	.	4e/	.	.
.	.	.	.	.	.	.	.	.	.	.	.	.	4d/	.	.
=57-	=57-	=57-	=57-	=57-	=57-	=57-	=57-	=57-	=57-	=57-	=57-	=57-	=57-	=57-	=57-
!LO:TX:t=P:problem:kreska pseudotaktowa	!	!	!	!LO:TX:t=P:problem:kreska pseudotaktowa	!	!	!	!	!	!	!	!	!	!	!
1r	.	.	.	1r	.	.	.	.	.	.	.	.	2.e/	.	.
!	!	!	!	!	!	!	!LO:SIC:v:t=custos d	!	!	!	!	!	!	!	!
!	!	!	!	!	!	!	!LO:TX:t=P:problem:kreska pseudotaktowa	!	!	!	!	!	!	!	!
.	.	.	.	.	.	.	2c\	.	.	.	.	.	.	.	.
.	.	.	.	.	.	.	.	.	.	.	.	.	4e/	-ti-	.
!	!	!	!	!	!	!	!LO:LB:g=original	!	!	!	!	!	!	!	!
2r	.	.	.	2rF	.	.	2d,<\	-mnes	.	2r	.	.	2d,</	-ant	.
*	*	*	*	*	*	*	*	*	*	*	*	*	*	*ij	*
!	!	!	!	!LO:TX:t=P:problem:kreska pseudotaktowa	!	!	!	!	!	!	!	!	!	!	!
2D/	sen-	.	.	2D/	sen-	.	2A/	sen-	.	2d\	sen-	.	1f\	sen-	.
=58-	=58-	=58-	=58-	=58-	=58-	=58-	=58-	=58-	=58-	=58-	=58-	=58-	=58-	=58-	=58-
2D/	-ti-	.	.	2D/	-ti-	.	2A/	-ti-	.	2d\	-ti-	.	.	.	.
!LO:TX:t=P:problem:kreska pseudotaktowa	!	!	!	!LO:TX:t=P:problem:kreska pseudotaktowa	!	!	!LO:TX:t=P:problem:kreska pseudotaktowa	!	!	!LO:TX:t=P:problem:kreska pseudotaktowa	!	!	!LO:TX:t=P:problem:kreska pseudotaktowa	!	!
2D,</	-ant	.	.	2D,</	-ant	.	2A,</	-ant	.	2d\	-ant	.	2f\	-ti-	.
2A\	om-	.	.	2A\	om-	.	2c\	o-	.	2c\	om-	.	2e,<\	-ant	.
*	*	*	*	*	*	*	*	*	*	*	*	*	*	*Xij	*
!LO:TX:t=P:problem:kreska pseudotaktowa	!	!	!	!LO:TX:t=P:problem:kreska pseudotaktowa	!	!	!	!	!	!	!	!	!	!	!
2A\	-nes	.	.	2A,<\	-nes	.	1c\	-mnes	.	1e\	-nes	.	2a\	Tu-	.
=59-	=59-	=59-	=59-	=59-	=59-	=59-	=59-	=59-	=59-	=59-	=59-	=59-	=59-	=59-	=59-
!LO:LB:g=original	!	!	!	!	!	!	!	!	!	!	!	!	!	!	!
2A\	Tu-	.	.	2A\	Tu-	.	.	.	.	.	.	.	2a,<\	-um	.
!	!	!	!	!	!	!	!	!	!	!LO:SIC:v:t=custos e	!	!	!	!	!
!	!	!	!	!LO:TX:t=P:problem:kreska pseudotaktowa	!	!	!LO:TX:t=P:problem:kreska pseudotaktowa	!	!	!LO:TX:t=P:problem:kreska pseudotaktowa	!	!	!LO:TX:t=P:problem:kreska pseudotaktowa	!	!
2A\	-um	.	.	2A\	-um	.	2c\	Tu-	.	2f\	tu-	.	2a\	Ju-	.
!	!	!	!	!	!	!	!LO:SIC:v:s=2c#	!	!	!LO:LB:g=original	!	!	!LO:LB:g=original	!	!
2c#X\	Ju-	.	.	2c#X\	Ju-	.	2c,<\	-um	.	2e,<\	-um	.	(2g\	-va-	.
2d\	-va-	.	.	2d\	-va-	.	2A\	Ju-	.	2d\	Ju-	.	2f\)	.	.
=60-	=60-	=60-	=60-	=60-	=60-	=60-	=60-	=60-	=60-	=60-	=60-	=60-	=60-	=60-	=60-
!LO:TX:t=P:problem:kreska pseudotaktowa	!	!	!	!LO:TX:t=P:problem:kreska pseudotaktowa	!	!	!	!	!	!	!	!	!LO:TX:t=P:problem:kreska pseudotaktowa	!	!
1A	-men	.	.	1A	-men	.	1.A	-va-	.	1.c	-va-	.	1e,<	-men	.
2r	.	.	.	2r	.	.	.	.	.	.	.	.	2r	.	.
!	!	!	!	!LO:TX:t=P:problem:kreska pseudotaktowa	!	!	!LO:TX:t=P:problem:kreska pseudotaktowa	!	!	!LO:TX:t=P:problem:kreska pseudotaktowa	!	!	!LO:TX:t=P:problem:kreska pseudotaktowa	!	!
2A\	sen-	.	.	2A\	sen-	.	2A,</	-men	.	2c\	-men	.	2e\	sen-	.
=61-	=61-	=61-	=61-	=61-	=61-	=61-	=61-	=61-	=61-	=61-	=61-	=61-	=61-	=61-	=61-
2A\	-ti-	.	.	2A\	-ti-	.	2A\	sen-	.	2.c\	sen-	.	2e\	-ti-	.
!LO:TX:t=P:problem:kreska pseudotaktowa	!	!	!	!LO:TX:t=P:problem:kreska pseudotaktowa	!	!	!	!	!	!	!	!	!LO:TX:t=P:problem:kreska pseudotaktowa	!	!
2A\	-ant	.	.	2A\	-ant	.	2A\	-ti-	.	.	.	.	2e,<\	-ant	.
.	.	.	.	.	.	.	.	.	.	4d\	-ti-	.	.	.	.
!	!	!	!	!LO:LB:g=original	!	!	!	!	!	!	!	!	!	!	!
2A\	om-	.	.	2A/	om-	.	2.c\	-ant	.	2e,<\	-ant	.	2a\	om-	.
!	!	!	!	!LO:TX:t=P:problem:kreska pseudotaktowa	!	!	!	!	!	!LO:TX:t=P:problem:kreska pseudotaktowa	!	!	!LO:TX:t=P:problem:kreska pseudotaktowa	!	!
2A,<\	-nes	.	.	2A,</	-nes	.	.	.	.	2f\	tu-	.	2a,<\	-nes	.
!	!	!	!	!	!	!	!LO:TX:t=P:problem:kreska pseudotaktowa	!	!	!	!	!	!	!	!
.	.	.	.	.	.	.	4d,<\	.	.	.	.	.	.	.	.
=62-	=62-	=62-	=62-	=62-	=62-	=62-	=62-	=62-	=62-	=62-	=62-	=62-	=62-	=62-	=62-
2cny\	Tu-	.	.	2cny\	Tu-	.	2e\	tu-	.	2e,<\	-um	.	2a\	tu-	.
1c	-um	.	.	1c,<	-um	.	1e	-um	.	1e	Ju-	.	1g	um	.
!LO:TX:t=P:problem:kreska pseudotaktowa	!	!	!	!LO:TX:t=P:problem:kreska pseudotaktowa	!	!	!	!	!	!	!	!	!LO:TX:t=P:problem:kreska pseudotaktowa	!	!
2c\	Ju-	.	.	2c\	Ju-	.	2f\	Ju-	.	2g\	.	.	2e\	Ju-	.
=63-	=63-	=63-	=63-	=63-	=63-	=63-	=63-	=63-	=63-	=63-	=63-	=63-	=63-	=63-	=63-
!	!	!	!	!LO:TX:t=P:problem:kreska pseudotaktowa	!	!	!	!	!	!LO:TX:t=P:problem:kreska pseudotaktowa	!	!	!	!	!
1d	-va-	.	.	1d	-va-	.	1d	-va-	.	1f	-va-	.	1a	-va-	.
!	!	!	!	!	!	!	!LO:TX:t=P:problem:kreska pseudotaktowa	!	!	!	!	!	!LO:TX:t=P:problem:kreska pseudotaktowa	!	!
2A,<\	-men	.	.	2A,<\	-men	.	0c	-men.	.	1.e,<	-men	.	1a,<	-men	.
!	!	!	!	!LO:TX:t=P:problem:kreska pseudotaktowa	!	!	!	!	!	!	!	!	!	!	!
2A\	Ju-	.	.	2A\	Ju-	.	.	.	.	.	.	.	.	.	.
=64-	=64-	=64-	=64-	=64-	=64-	=64-	=64-	=64-	=64-	=64-	=64-	=64-	=64-	=64-	=64-
(2G/	-va-	.	.	(2A/	-va-	.	.	.	.	.	.	.	2rg	.	.
!	!	!	!	!LO:TX:t=P:problem:kreska pseudotaktowa	!	!	!	!	!	!	!	!	!	!	!
2F/)	.	.	.	2F/)	.	.	.	.	.	2f\	ju-	.	2a\	Ju-	.
!LO:SIC:v:t=custos F	!	!	!	!LO:SIC:v:t=custos F	!LO:PB:g=original	!	!	!	!	!	!	!	!	!	!
!LO:TX:t=P:problem:kreska pseudotaktowa	!	!	!	!LO:TX:t=P:problem:kreska pseudotaktowa	!	!	!	!	!	!	!	!	!	!	!
1c	-men	.	.	1c	-men	.	2r	.	.	(2f\	-va-	.	(2a\	-va-	.
!	!	!	!	!	!	!	!LO:TX:t=P:problem:kreska pseudotaktowa	!	!	!LO:TX:t=P:problem:kreska pseudotaktowa	!	!	!LO:TX:t=P:problem:kreska pseudotaktowa	!	!
.	.	.	.	.	.	.	2c\	qui-	.	2e\)	.	.	2g\)	.	.
=65-	=65-	=65-	=65-	=65-	=65-	=65-	=65-	=65-	=65-	=65-	=65-	=65-	=65-	=65-	=65-
!	!	!	!	!LO:PB:g=original	!	!	!	!	!	!	!	!	!	!	!
2r	.	.	.	2rF	.	.	2c\	-cun-	.	2f,<\	-men	.	2a,<\	-men	.
!	!	!	!	!LO:TX:t=P:problem:kreska pseudotaktowa	!	!	!LO:TX:t=P:problem:kreska pseudotaktowa	!	!	!	!	!	!	!	!
2F/	qui-	.	.	2F/	qui-	.	2c\	-que	.	2c\	qui-	.	2a\	qui-	.
2F/	-cun-	.	.	2F/	-cun-	.	2.f\	ce-	.	2c\	-cun-	.	2a\	-cun-	.
!LO:TX:t=P:problem:kreska pseudotaktowa	!	!	!	!LO:TX:t=P:problem:kreska pseudotaktowa	!	!	!	!	!	!LO:TX:t=P:problem:kreska pseudotaktowa	!	!	!LO:TX:t=P:problem:kreska pseudotaktowa	!	!
2F/	-q(ue)	.	.	2F,</	-q(ue)	.	.	.	.	2c\	-q(ue)	.	2a\	-que	.
.	.	.	.	.	.	.	4e\	-le-	.	.	.	.	.	.	.
=66-	=66-	=66-	=66-	=66-	=66-	=66-	=66-	=66-	=66-	=66-	=66-	=66-	=66-	=66-	=66-
!LO:PB:g=original	!	!	!	!	!	!	!	!	!	!LO:PB:g=original	!	!	!LO:PB:g=original	!	!
2.B-\	ce-	.	.	2.B-\	ce-	.	2d,<\	-brant	.	2d\	ce-	.	(2f\	ce-	.
!	!	!	!	!	!	!	!LO:TX:t=P:problem:kreska pseudotaktowa	!	!	!	!	!	!	!	!
.	.	.	.	.	.	.	2d\	Tu-	.	2d\	-le-	.	2g\)	.	.
!	!	!	!	!LO:TX:t=P:problem:kreska pseudotaktowa	!	!	!	!	!	!	!	!	!	!	!
4B-\	-le-	.	.	4B-\	-le-	.	.	.	.	.	.	.	.	.	.
2A,</	-brant	.	.	2A,<\	-brant	.	(2c\	-am	.	(2e\	-brant	.	4c/	.	.
.	.	.	.	.	.	.	.	.	.	.	.	.	4d/	.	.
!LO:SIC:v:l:s=Tu-	!	!	!	!LO:TX:t=P:problem:kreska pseudotaktowa	!	!	!	!	!	!LO:TX:t=P:problem:kreska pseudotaktowa	!	!	!	!	!
2A/	lu-	.	.	2A\	Tu-	.	4B-\	.	.	2c\)	.	.	(4e/	-le-	.
!	!	!	!	!	!	!	!LO:TX:t=P:problem:kreska pseudotaktowa	!	!	!	!	!	!LO:TX:t=P:problem:kreska pseudotaktowa	!	!
.	.	.	.	.	.	.	4A\)	.	.	.	.	.	4f/)	.	.
=67-	=67-	=67-	=67-	=67-	=67-	=67-	=67-	=67-	=67-	=67-	=67-	=67-	=67-	=67-	=67-
!LO:TX:t=P:problem:kreska pseudotaktowa	!	!	!	!LO:TX:t=P:problem:kreska pseudotaktowa	!	!	!	!	!	!	!	!	!	!	!
1G	-am	.	.	1G,<	-am	.	1B-	San-	.	2.d\	Tu-	.	2g,<\	-brant	.
.	.	.	.	.	.	.	.	.	.	.	.	.	2g\	Tu-	.
.	.	.	.	.	.	.	.	.	.	4e\	-am	.	.	.	.
!	!	!	!	!	!	!	!LO:TX:t=P:problem:kreska pseudotaktowa	!	!	!	!	!	!	!	!
2F/	San-	.	.	2F/	San-	.	1A	-ctam	.	1f	S(an)-	.	2c,</	-am	.
4E/	.	.	.	4E/	.	.	.	.	.	.	.	.	1d/	San-	.
4D/	.	.	.	4D/	.	.	.	.	.	.	.	.	.	.	.
=68-	=68-	=68-	=68-	=68-	=68-	=68-	=68-	=68-	=68-	=68-	=68-	=68-	=68-	=68-	=68-
!LO:TX:t=P:problem:kreska pseudotaktowa	!	!	!	!LO:TX:t=P:problem:kreska pseudotaktowa	!	!	!	!	!	!LO:TX:t=P:problem:kreska pseudotaktowa	!	!	!	!	!
1A	-ctam	.	.	1A,<	-ctam	.	2r	.	.	1e	-ct(am)	.	.	.	.
!	!	!	!	!	!	!	!LO:TX:t=P:problem:kreska pseudotaktowa	!	!	!	!	!	!LO:TX:t=P:problem:kreska pseudotaktowa	!	!
.	.	.	.	.	.	.	2A\	Prae-	Com-	.	.	.	2c#X/	.	.
2r	.	.	.	2rD	.	.	1.A	-sen-	-me-	2r	.	.	2d,</	-ctam	.
*	*	*above	*above	*	*	*	*	*	*	*	*	*	*	*	*
!LO:TX:t=P:problem:2 wersy tekstu nad pięciolinią	!	!	!	!LO:TX:t=P:problem:kreska pseudotaktowa	!	!	!	!	!	!	!	!	!LO:TX:t=P:problem:kreska pseudotaktowa	!	!
2D/	Com-	Prae-	Si-	2D/	San-	.	.	.	.	2d\	San-	.	2f\	Prae-	Com-
=69-	=69-	=69-	=69-	=69-	=69-	=69-	=69-	=69-	=69-	=69-	=69-	=69-	=69-	=69-	=69-
2A/	me-	-sen-	-len-	2A,<\	-ctam	.	.	.	.	2c,<\	-ctam	.	2e\	-sen-	-me-
!LO:TX:t=P:problem:kreska pseudotaktowa	!	!	!	!LO:TX:t=P:problem:kreska pseudotaktowa	!	!	!	!	!	!LO:TX:t=P:problem:kreska pseudotaktowa	!	!	!LO:TX:t=P:problem:kreska pseudotaktowa	!	!
2A/	-mo-	-ta-	-ni-	2A\	Prae-	Com-	2A/	.	.	2c\	Prae-	Com-	2f\	-ta-	-mo-
!	!	!	!	!LO:LB:g=original	!	!	!	!	!	!	!	!	!	!	!
2B-\	-ra-	-ti-	-ta-	2B-\	.	me-	2F/	-ta-	-mo-	2d\	-sen-	-me-	4f/	-ti-	-ra-
.	.	.	.	.	.	.	.	.	.	.	.	.	4e/	.	.
!	!	!	!	!	!	!	!LO:SIC:v:t=custos A	!	!	!	!	!	!	!	!
!	!	!	!	!LO:TX:t=P:problem:kreska pseudotaktowa	!	!	!LO:TX:t=P:problem:kreska pseudotaktowa	!	!	!	!	!	!	!	!
2B-\	-ti-	-o-	.	2B-\	-sen-	-mo-	2G/	.	-ra-	2d\	-ta-	-mo-	2d/	o-	-ti-
=70-	=70-	=70-	=70-	=70-	=70-	=70-	=70-	=70-	=70-	=70-	=70-	=70-	=70-	=70-	=70-
!	!	!	!	!	!	!	!LO:LB:g=original	!	!	!	!	!	!	!	!
2A/	-o-	.	.	2A\	-ta-	-ra-	1.A	.	.	2e\	-ti-	-ra-	2c#X/	.	.
!	!	!	!	!LO:TX:t=P:problem:kreska pseudotaktowa	!	!	!	!	!	!	!	!	!	!	!
2D/	.	.	.	2D/	-ti-	-ti-	.	.	.	2f\	.	-ti-	1d	.	-o-
!LO:TX:t=P:problem:kreska pseudotaktowa	!	!	!	!LO:TX:t=P:problem:kreska pseudotaktowa	!	!	!	!	!	!LO:TX:t=P:problem:kreska pseudotaktowa	!	!	!	!	!
1A	.	.	.	1A	-o-	-o-	.	.	.	2f\	-o-	-o-	.	.	.
!	!	!	!	!	!	!	!LO:TX:t=P:problem:kreska pseudotaktowa	!	!	!	!	!	!LO:TX:t=P:problem:kreska pseudotaktowa	!	!
.	.	.	.	.	.	.	2A\	-ti-	-ti-	2e\	.	.	2cny/	.	.
=71-	=71-	=71-	=71-	=71-	=71-	=71-	=71-	=71-	=71-	=71-	=71-	=71-	=71-	=71-	=71-
2.D/	.	.	.	2.D/	.	.	2A/	-o-	-o-	1.f	-nem	-nem,	2d,</	-nem	-nem
!	!	!	!	!	!	!	!	!	!	!	!	!	!LO:TX:t=P:problem:kreska pseudotaktowa	!	!
.	.	.	.	.	.	.	4F/	.	.	.	.	.	2a\	Prae-	Com-
!	!	!	!	!LO:TX:t=P:problem:kreska pseudotaktowa	!	!	!LO:TX:t=P:problem:kreska pseudotaktowa	!	!	!	!	!	!	!	!
4E/	.	.	.	4E/	.	.	4G/	.	.	.	.	.	.	.	.
!	!	!	!	!	!	!	!	!	!	!	!	!	!LO:LB:g=original	!	!
4F/	.	.	.	4F/	.	.	4A\	.	.	.	.	.	2a\	-sen-	-me-
4G/	.	.	.	4G/	.	.	4B-\	.	.	.	.	.	.	.	.
!LO:TX:t=P:problem:kreska pseudotaktowa	!	!	!	!LO:TX:t=P:problem:kreska pseudotaktowa	!	!	!LO:TX:t=P:problem:kreska pseudotaktowa	!	!	!	!	!	!LO:TX:t=P:problem:kreska pseudotaktowa	!	!
2A\	.	.	.	2A\	.	.	2c\	.	.	2e\	Prae-	Com-	2a\	-ta-	-mo-
=72-	=72-	=72-	=72-	=72-	=72-	=72-	=72-	=72-	=72-	=72-	=72-	=72-	=72-	=72-	=72-
2B-\	.	.	.	2B-\	.	.	2d\	.	.	2.d\	-sen-	-me-	2.f\	-ti-	-ra-
2.d\	.	.	.	2.d\	.	.	1f	.	.	.	.	.	.	.	.
!	!	!	!	!	!	!	!	!	!	!LO:TX:t=P:problem:kreska pseudotaktowa	!	!	!LO:TX:t=P:problem:kreska pseudotaktowa	!	!
.	.	.	.	.	.	.	.	.	.	4e\	.	-mo-	4e\	.	-ti-
!	!	!	!	!	!	!	!	!	!	!LO:LB:g=original	!	!	!	!	!
.	.	.	.	.	.	.	.	.	.	2f\	-ta-	-ra-	2d/	-o-	-o-
4c\	.	.	.	4c\	.	.	.	.	.	.	.	.	.	.	.
4B-\	.	.	.	4B-\	.	.	1e\	.	.	2.g\	.	.	4e/	.	.
!LO:TX:t=P:problem:kreska pseudotaktowa	!	!	!	!LO:TX:t=P:problem:kreska pseudotaktowa	!	!	!	!	!	!	!	!	!	!	!
4A\	.	.	.	4A\	.	.	.	.	.	.	.	.	4f/	.	.
=73-	=73-	=73-	=73-	=73-	=73-	=73-	=73-	=73-	=73-	=73-	=73-	=73-	=73-	=73-	=73-
!	!	!	!	!	!	!	!	!	!	!	!	!	!LO:TX:t=P:problem:kreska pseudotaktowa	!	!
2G/	.	.	.	2G/	.	.	.	.	.	.	.	.	1g	.	.
.	.	.	.	.	.	.	.	.	.	4f\	.	.	.	.	.
!LO:TX:t=P:problem:kreska pseudotaktowa	!	!	!	!	!	!	!LO:TX:t=P:problem:kreska pseudotaktowa	!	!	!	!	!	!	!	!
2B-\	.	.	.	2B-\	.	.	2d\	.	.	4e\	.	.	.	.	.
!	!	!	!	!	!	!	!	!	!	!LO:TX:t=P:problem:kreska pseudotaktowa	!	!	!	!	!
.	.	.	.	.	.	.	.	.	.	4d\	.	.	.	.	.
!LO:LB:g=original	!	!	!	!	!	!	!	!	!	!	!	!	!	!	!
0A	.	.	.	0A	.	.	2c#X\	.	.	2e\	.	.	0a	.	.
.	.	.	.	.	.	.	1d\	.	.	2f\	-ti-	-ti-	.	.	.
=74-	=74-	=74-	=74-	=74-	=74-	=74-	=74-	=74-	=74-	=74-	=74-	=74-	=74-	=74-	=74-
.	.	.	.	.	.	.	.	.	.	1e	-o-	-o-	.	.	.
.	.	.	.	.	.	.	2c#X\	.	.	.	.	.	.	.	.
!LO:N:vis=0	!	!	!	!	!	!	!	!	!	!LO:N:vis=0	!	!	!	!	!
0.D;	-nem	-nem.	-tem	0.D;	-nem	nem	0.d;	-nem	-nem	0.d;	-nem	nem	0.f#X;	-nem	-nem
=75-	=75-	=75-	=75-	=75-	=75-	=75-	=75-	=75-	=75-	=75-	=75-	=75-	=75-	=75-	=75-
.	.	.	.	.	.	.	.	.	.	.	.	.	.	.	.
.	.	.	.	.	.	.	.	.	.	.	.	.	.	.	.
!LO:LB:g=original	!	!	!	!LO:LB:g=original	!	!	!LO:LB:g=original	!	!	!LO:LB:g=original	!	!	!LO:LB:g=original	!	!
==	==	==	==	==	==	==	==	==	==	==	==	==	==	==	==
*-	*-	*-	*-	*-	*-	*-	*-	*-	*-	*-	*-	*-	*-	*-	*-
!!!system-decoration: [(s1,s2,s3,s4,s5)]
!!!RDF**kern: < = below
!!!RDF**kern: > = above
!!!ENC: Marta Chmielewska
!!!END: 2021-03-31
!!!ENC: Berenika Jozajtis
!!!END: 2021-03-11
